packages/elvis-assets-icons/icons/svg/src/electricity_pillar.svg

<svg width="24" height="24" viewBox="0 0 24 24" fill="none" xmlns="http://www.w3.org/2000/svg">
<path d="M8.25 24C7.836 24 7.5 23.6416 7.5 23.2V7.6L2 3.2H0.75C0.336 3.2 0 2.8416 0 2.4C0 1.9584 0.336 1.6 0.75 1.6H1.5V0.8C1.5 0.3584 1.836 0 2.25 0C2.664 0 3 0.3584 3 0.8V1.6H4.5V0.8C4.5 0.3584 4.836 0 5.25 0C5.664 0 6 0.3584 6 0.8V1.6H10.5V0.8C10.5 0.3584 10.836 0 11.25 0C11.664 0 12 0.3584 12 0.8V1.6H13.5V0.8C13.5 0.3584 13.836 0 14.25 0C14.664 0 15 0.3584 15 0.8V1.6H15.75C16.164 1.6 16.5 1.9584 16.5 2.4C16.5 2.8416 16.164 3.2 15.75 3.2H14.5L9 7.6V23.2C9 23.6416 8.664 24 8.25 24ZM8.25 6.19947L12 3.2H4.5L8.25 6.19947Z" fill="black"/>
<path d="M17.25 24C16.836 24 16.5 23.6416 16.5 23.2V15.5317L12.439 11.2H11.25C10.836 11.2 10.5 10.8416 10.5 10.4C10.5 9.9584 10.836 9.6 11.25 9.6H12V8.8C12 8.3584 12.336 8 12.75 8C13.164 8 13.5 8.3584 13.5 8.8V9.6H21V8.8C21 8.3584 21.336 8 21.75 8C22.164 8 22.5 8.3584 22.5 8.8V9.6H23.25C23.664 9.6 24 9.9584 24 10.4C24 10.8416 23.664 11.2 23.25 11.2H22.061L18 15.5317V23.2C18 23.6416 17.664 24 17.25 24ZM17.25 14.0683L19.939 11.2H14.56L17.25 14.0683Z" fill="black"/>
</svg>

<svg width="24" height="24" fill="none" xmlns="http://www.w3.org/2000/svg"><path d="M8.25 24c-.414 0-.75-.358-.75-.8V7.6L2 3.2H.75C.336 3.2 0 2.842 0 2.4c0-.442.336-.8.75-.8h.75V.8c0-.442.336-.8.75-.8S3 .358 3 .8v.8h1.5V.8c0-.442.336-.8.75-.8S6 .358 6 .8v.8h4.5V.8c0-.442.336-.8.75-.8s.75.358.75.8v.8h1.5V.8c0-.442.336-.8.75-.8s.75.358.75.8v.8h.75c.414 0 .75.358.75.8 0 .442-.336.8-.75.8H14.5L9 7.6v15.6c0 .442-.336.8-.75.8zm0-17.8l3.75-3H4.5l3.75 3z" fill="#000"/><path d="M17.25 24c-.414 0-.75-.358-.75-.8v-7.668L12.439 11.2H11.25c-.414 0-.75-.358-.75-.8 0-.442.336-.8.75-.8H12v-.8c0-.442.336-.8.75-.8s.75.358.75.8v.8H21v-.8c0-.442.336-.8.75-.8s.75.358.75.8v.8h.75c.414 0 .75.358.75.8 0 .442-.336.8-.75.8h-1.189L18 15.532V23.2c0 .442-.336.8-.75.8zm0-9.932l2.689-2.868H14.56l2.69 2.868z" fill="#000"/></svg>
